X: 1
T: Uncle Bill's Jig
T: 8x32J 2C (Roy Goldring - Graded/Social 3)
P: Mary Bain's Wedding  (My Ain Hoose)  (John Bain's Sister's Wedding)
C: trad., from John Chambers
R: jig
Z: 2011 John Chambers <jc:trillian.mit.edu>
M: 6/8
L: 1/8
K: D
|: A \
| "D"F2D DED | "G"dcB "A7"A2G | "D"F2D "(Bm)"DEF | "Em"G2F "A7"EAG \
| "D"F2D DED | "G"dcB "A7"A2G | "D"FDF "C"E=CE | "D"D3 D2 :|
|: A \
| "D"D2E F2G | "D"A2F FEF | "Em"G2E "A7"EFG | "D"AFD DFA \
| "G"B2c dcB | "A7"A2G "D"FdA | "D"FDF "C"E=CE | "D"D3 D2 :| 